;FLAVOR:Marlin
;TIME:1593
;Filament used: 0.987013m
;Layer height: 0.2
;MINX:5.653
;MINY:6.335
;MINZ:0.2
;MAXX:213.462
;MAXY:213.665
;MAXZ:0.2
;Generated with Cura_SteamEngine 4.9.1
M140 S60
M105
M190 S60
M104 S210
M105
M109 S210
M82 ;absolute extrusion mode
G28 ; home all axes
 M117 Purge extruder
 G92 E0 ; reset extruder
 G1 Z1.0 F3000 ; move z up little to prevent scratching of surface
 G1 X2 Y20 Z0.3 F5000.0 ; move to start-line position
 G1 X2 Y200.0 Z0.3 F1500.0 E15 ; draw 1st line
 G1 X2 Y200.0 Z0.4 F5000.0 ; move to side a little
 G1 X2 Y20 Z0.4 F1500.0 E30 ; draw 2nd line
 G92 E0 ; reset extruder
 G1 Z1.0 F3000 ; move z up little to prevent scratching of surface
G92 E0
G92 E0
G1 F1500 E-2
;LAYER_COUNT:1
;LAYER:0
M107
;MESH:Level Test.STL
G0 F6000 X123.218 Y211.9 Z0.2
;TYPE:WALL-INNER
G1 F1500 E0
G1 F1200 X95.418 Y211.9 E1.01709
G1 X95.418 Y184.1 E2.03419
G1 X123.218 Y184.1 E3.05128
G1 X123.218 Y211.9 E4.06838
G0 F6000 X123.658 Y212.34
G1 F1200 X94.978 Y212.34 E5.11767
G1 X94.978 Y183.66 E6.16696
G1 X123.658 Y183.66 E7.21625
G1 X123.658 Y212.34 E8.26554
G0 F6000 X124.098 Y212.78
;TYPE:WALL-OUTER
G1 F1200 X94.538 Y212.78 E9.34703
G1 X94.538 Y183.22 E10.42852
G1 X124.098 Y183.22 E11.51
G1 X124.098 Y212.78 E12.59149
G0 F6000 X122.788 Y211.47
;TYPE:SKIN
G1 F1200 X95.848 Y211.47 E13.57712
G1 X95.848 Y184.53 E14.56275
G1 X122.788 Y184.53 E15.54838
G1 X122.788 Y211.47 E16.53401
G1 F1500 E14.53401
G0 F6000 X124.983 Y211.47
G0 X124.983 Y184.837
G0 X122.612 Y184.837
G1 F1500 E16.53401
G1 F1200 X122.48 Y184.705 E16.54084
G0 F6000 X121.857 Y184.705
G1 F1200 X122.612 Y185.459 E16.57988
G0 F6000 X122.612 Y186.082
G1 F1200 X121.235 Y184.705 E16.65113
G0 F6000 X120.613 Y184.705
G1 F1200 X122.612 Y186.704 E16.75456
G0 F6000 X122.612 Y187.326
G1 F1200 X119.991 Y184.705 E16.89017
G0 F6000 X119.368 Y184.705
G1 F1200 X122.612 Y187.948 E17.05799
G0 F6000 X122.612 Y188.571
G1 F1200 X118.746 Y184.705 E17.25802
G0 F6000 X118.124 Y184.705
G1 F1200 X122.612 Y189.193 E17.49023
G0 F6000 X122.612 Y189.815
G1 F1200 X117.502 Y184.705 E17.75463
G0 F6000 X116.879 Y184.705
G1 F1200 X122.612 Y190.437 E18.05123
G0 F6000 X122.612 Y191.06
G1 F1200 X116.257 Y184.705 E18.38004
G0 F6000 X115.635 Y184.705
G1 F1200 X122.612 Y191.682 E18.74103
G0 F6000 X122.612 Y192.304
G1 F1200 X115.013 Y184.705 E19.13421
G0 F6000 X114.39 Y184.705
G1 F1200 X122.612 Y192.927 E19.55962
G0 F6000 X122.612 Y193.549
G1 F1200 X113.768 Y184.705 E20.01722
G0 F6000 X113.146 Y184.705
G1 F1200 X122.612 Y194.171 E20.50699
G0 F6000 X122.612 Y194.793
G1 F1200 X112.524 Y184.705 E21.02895
G0 F6000 X111.901 Y184.705
G1 F1200 X122.612 Y195.416 E21.58315
G0 F6000 X122.612 Y196.038
G1 F1200 X111.279 Y184.705 E22.16952
G0 F6000 X110.657 Y184.705
G1 F1200 X122.612 Y196.66 E22.78808
G0 F6000 X122.612 Y197.282
G1 F1200 X110.035 Y184.705 E23.43882
G0 F6000 X109.412 Y184.705
G1 F1200 X122.612 Y197.905 E24.1218
G0 F6000 X122.612 Y198.527
G1 F1200 X108.79 Y184.705 E24.83696
G0 F6000 X108.168 Y184.705
G1 F1200 X122.612 Y199.149 E25.5843
G0 F6000 X122.612 Y199.771
G1 F1200 X107.545 Y184.705 E26.36385
G0 F6000 X106.923 Y184.705
G1 F1200 X122.612 Y200.394 E27.17561
G0 F6000 X122.612 Y201.016
G1 F1200 X106.301 Y184.705 E28.01955
G0 F6000 X105.679 Y184.705
G1 F1200 X122.612 Y201.638 E28.89568
G0 F6000 X122.612 Y202.26
G1 F1200 X105.056 Y184.705 E29.80401
G0 F6000 X104.434 Y184.705
G1 F1200 X122.612 Y202.883 E30.74455
G0 F6000 X122.612 Y203.505
G1 F1200 X103.812 Y184.705 E31.71727
G0 F6000 X103.19 Y184.705
G1 F1200 X122.612 Y204.127 E32.72218
G0 F6000 X122.612 Y204.749
G1 F1200 X102.567 Y184.705 E33.7593
G0 F6000 X101.945 Y184.705
G1 F1200 X122.612 Y205.372 E34.82862
G0 F6000 X122.612 Y205.994
G1 F1200 X101.323 Y184.705 E35.93012
G0 F6000 X100.701 Y184.705
G1 F1200 X122.612 Y206.616 E37.06381
G0 F6000 X122.612 Y207.238
G1 F1200 X100.078 Y184.705 E38.22971
G0 F6000 X99.456 Y184.705
G1 F1200 X122.612 Y207.861 E39.42782
G0 F6000 X122.612 Y208.483
G1 F1200 X98.834 Y184.705 E40.65811
G0 F6000 X98.212 Y184.705
G1 F1200 X122.612 Y209.105 E41.92058
G0 F6000 X122.612 Y209.727
G1 F1200 X97.589 Y184.705 E43.21526
G0 F6000 X96.967 Y184.705
G1 F1200 X122.612 Y210.35 E44.54215
G0 F6000 X122.612 Y210.972
G1 F1200 X96.345 Y184.705 E45.90122
G0 F6000 X96.023 Y185.006
G1 F1200 X122.311 Y211.293 E47.26135
G0 F6000 X121.688 Y211.293
G1 F1200 X96.023 Y185.628 E48.58927
G0 F6000 X96.023 Y186.25
G1 F1200 X121.066 Y211.293 E49.88501
G0 F6000 X120.444 Y211.293
G1 F1200 X96.023 Y186.872 E51.14857
G0 F6000 X96.023 Y187.495
G1 F1200 X119.822 Y211.293 E52.37992
G0 F6000 X119.199 Y211.293
G1 F1200 X96.023 Y188.117 E53.57906
G0 F6000 X96.023 Y188.739
G1 F1200 X118.577 Y211.293 E54.74602
G0 F6000 X117.955 Y211.293
G1 F1200 X96.023 Y189.361 E55.88079
G0 F6000 X96.023 Y189.984
G1 F1200 X117.333 Y211.293 E56.98336
G0 F6000 X116.71 Y211.293
G1 F1200 X96.023 Y190.606 E58.05372
G0 F6000 X96.023 Y191.228
G1 F1200 X116.088 Y211.293 E59.09189
G0 F6000 X115.466 Y211.293
G1 F1200 X96.023 Y191.85 E60.09789
G0 F6000 X96.023 Y192.473
G1 F1200 X114.844 Y211.293 E61.07167
G0 F6000 X114.221 Y211.293
G1 F1200 X96.023 Y193.095 E62.01325
G0 F6000 X96.023 Y193.717
G1 F1200 X113.599 Y211.293 E62.92264
G0 F6000 X112.977 Y211.293
G1 F1200 X96.023 Y194.339 E63.79985
G0 F6000 X96.023 Y194.962
G1 F1200 X112.355 Y211.293 E64.64485
G0 F6000 X111.732 Y211.293
G1 F1200 X96.023 Y195.584 E65.45765
G0 F6000 X96.023 Y196.206
G1 F1200 X111.11 Y211.293 E66.23826
G0 F6000 X110.488 Y211.293
G1 F1200 X96.023 Y196.828 E66.98669
G0 F6000 X96.023 Y197.451
G1 F1200 X109.866 Y211.293 E67.70291
G0 F6000 X109.243 Y211.293
G1 F1200 X96.023 Y198.073 E68.38692
G0 F6000 X96.023 Y198.695
G1 F1200 X108.621 Y211.293 E69.03875
G0 F6000 X107.999 Y211.293
G1 F1200 X96.023 Y199.317 E69.65839
G0 F6000 X96.023 Y199.94
G1 F1200 X107.376 Y211.293 E70.2458
G0 F6000 X106.754 Y211.293
G1 F1200 X96.023 Y200.562 E70.80103
G0 F6000 X96.023 Y201.184
G1 F1200 X106.132 Y211.293 E71.32408
G0 F6000 X105.51 Y211.293
G1 F1200 X96.023 Y201.806 E71.81494
G0 F6000 X96.023 Y202.429
G1 F1200 X104.887 Y211.293 E72.27357
G0 F6000 X104.265 Y211.293
G1 F1200 X96.023 Y203.051 E72.70002
G0 F6000 X96.023 Y203.673
G1 F1200 X103.643 Y211.293 E73.09428
G0 F6000 X103.021 Y211.293
G1 F1200 X96.023 Y204.295 E73.45636
G0 F6000 X96.023 Y204.918
G1 F1200 X102.398 Y211.293 E73.78621
G0 F6000 X101.776 Y211.293
G1 F1200 X96.023 Y205.54 E74.08387
G0 F6000 X96.023 Y206.162
G1 F1200 X101.154 Y211.293 E74.34935
G0 F6000 X100.532 Y211.293
G1 F1200 X96.023 Y206.784 E74.58265
G0 F6000 X96.023 Y207.407
G1 F1200 X99.909 Y211.293 E74.78371
G0 F6000 X99.287 Y211.293
G1 F1200 X96.023 Y208.029 E74.9526
G0 F6000 X96.023 Y208.651
G1 F1200 X98.665 Y211.293 E75.08929
G0 F6000 X98.043 Y211.293
G1 F1200 X96.023 Y209.273 E75.19381
G0 F6000 X96.023 Y209.896
G1 F1200 X97.42 Y211.293 E75.26609
G0 F6000 X96.798 Y211.293
G1 F1200 X96.023 Y210.518 E75.30619
G0 F6000 X96.023 Y211.14
G1 F1200 X96.176 Y211.293 E75.31411
G1 F1500 E73.31411
G0 F6000 X96.176 Y213.665
G0 X93.665 Y213.653
G0 X93.665 Y182.347
G0 X129.877 Y164.262
G0 X129.877 Y162.497
;TYPE:WALL-INNER
G1 F1500 E75.31411
G1 F1200 X129.877 Y161.108 E75.36493
G1 X133.467 Y161.108 E75.49627
G1 X133.467 Y144.697 E76.09669
G1 X134.857 Y144.697 E76.14754
G1 X134.857 Y161.108 E76.74796
G1 X138.446 Y161.108 E76.87926
G1 X138.446 Y162.497 E76.93008
G1 X129.877 Y162.497 E77.24359
G0 F6000 X129.437 Y162.937
G1 F1200 X129.437 Y160.668 E77.3266
G1 X133.027 Y160.668 E77.45795
G1 X133.027 Y144.257 E78.05836
G1 X135.297 Y144.257 E78.14141
G1 X135.297 Y160.668 E78.74183
G1 X138.886 Y160.668 E78.87313
G1 X138.886 Y162.937 E78.95615
G1 X129.437 Y162.937 E79.30185
G0 F6000 X128.997 Y163.377
;TYPE:WALL-OUTER
G1 F1200 X128.997 Y160.228 E79.41706
G1 X132.587 Y160.228 E79.54841
G1 X132.587 Y143.817 E80.14882
G1 X135.737 Y143.817 E80.26407
G1 X135.737 Y160.228 E80.86448
G1 X139.326 Y160.228 E80.99579
G1 X139.326 Y163.377 E81.111
G1 X128.997 Y163.377 E81.4889
G0 F6000 X130.307 Y162.067
;TYPE:SKIN
G1 F1200 X130.307 Y161.538 E81.50825
G1 X133.897 Y161.538 E81.6396
G1 X133.897 Y145.127 E82.24001
G1 X134.427 Y145.127 E82.2594
G1 X134.427 Y161.538 E82.85982
G1 X138.016 Y161.538 E82.99113
G1 X138.016 Y162.067 E83.01048
G1 X130.307 Y162.067 E83.29252
G0 F6000 X130.6 Y161.713
G1 F1200 X130.777 Y161.889 E83.30165
G0 F6000 X131.222 Y161.713
G1 F1200 X131.399 Y161.889 E83.31079
G0 F6000 X131.845 Y161.713
G1 F1200 X132.021 Y161.889 E83.31989
G0 F6000 X132.467 Y161.713
G1 F1200 X132.644 Y161.889 E83.32903
G0 F6000 X133.089 Y161.713
G1 F1200 X133.266 Y161.889 E83.33816
G0 F6000 X133.711 Y161.713
G1 F1200 X133.888 Y161.889 E83.34729
G0 F6000 X134.251 Y161.63
G1 F1200 X134.072 Y161.451 E83.35655
G0 F6000 X134.334 Y161.713
G1 F1200 X134.51 Y161.889 E83.36566
G0 F6000 X134.956 Y161.713
G1 F1200 X135.133 Y161.889 E83.37479
G0 F6000 X135.578 Y161.713
G1 F1200 X135.755 Y161.889 E83.38392
G0 F6000 X136.2 Y161.713
G1 F1200 X136.377 Y161.889 E83.39305
G0 F6000 X136.823 Y161.713
G1 F1200 X136.999 Y161.889 E83.40216
G0 F6000 X137.445 Y161.713
G1 F1200 X137.622 Y161.889 E83.41129
G0 F6000 X134.251 Y161.008
G1 F1200 X134.072 Y160.829 E83.42055
G0 F6000 X134.251 Y160.385
G1 F1200 X134.072 Y160.207 E83.42979
G0 F6000 X134.251 Y159.763
G1 F1200 X134.072 Y159.584 E83.43905
G0 F6000 X134.251 Y159.141
G1 F1200 X134.072 Y158.962 E83.44831
G0 F6000 X134.251 Y158.519
G1 F1200 X134.072 Y158.34 E83.45757
G0 F6000 X134.251 Y157.896
G1 F1200 X134.072 Y157.718 E83.46681
G0 F6000 X134.251 Y157.274
G1 F1200 X134.072 Y157.095 E83.47607
G0 F6000 X134.251 Y156.652
G1 F1200 X134.072 Y156.473 E83.48533
G0 F6000 X134.251 Y156.03
G1 F1200 X134.072 Y155.851 E83.4946
G0 F6000 X134.251 Y155.407
G1 F1200 X134.072 Y155.229 E83.50383
G0 F6000 X134.251 Y154.785
G1 F1200 X134.072 Y154.606 E83.51309
G0 F6000 X134.251 Y154.163
G1 F1200 X134.072 Y153.984 E83.52235
G0 F6000 X134.251 Y153.541
G1 F1200 X134.072 Y153.362 E83.53162
G0 F6000 X134.251 Y152.918
G1 F1200 X134.072 Y152.74 E83.54085
G0 F6000 X134.251 Y152.296
G1 F1200 X134.072 Y152.117 E83.55011
G0 F6000 X134.251 Y151.674
G1 F1200 X134.072 Y151.495 E83.55937
G0 F6000 X134.251 Y151.052
G1 F1200 X134.072 Y150.873 E83.56864
G0 F6000 X134.251 Y150.429
G1 F1200 X134.072 Y150.25 E83.5779
G0 F6000 X134.251 Y149.807
G1 F1200 X134.072 Y149.628 E83.58716
G0 F6000 X134.251 Y149.185
G1 F1200 X134.072 Y149.006 E83.59642
G0 F6000 X134.251 Y148.563
G1 F1200 X134.072 Y148.384 E83.60568
G0 F6000 X134.251 Y147.94
G1 F1200 X134.072 Y147.761 E83.61494
G0 F6000 X134.251 Y147.318
G1 F1200 X134.072 Y147.139 E83.62421
G0 F6000 X134.251 Y146.696
G1 F1200 X134.072 Y146.517 E83.63347
G0 F6000 X134.251 Y146.074
G1 F1200 X134.072 Y145.895 E83.64273
G0 F6000 X134.251 Y145.451
G1 F1200 X134.101 Y145.301 E83.65049
G1 F1500 E81.65049
G0 F6000 X136.622 Y145.301
G0 X148.316 Y158.88
G0 X147.536 Y160.477
;TYPE:WALL-INNER
G1 F1500 E83.65049
G1 F1200 X147.756 Y160.608 E83.65986
G1 X148.037 Y160.761 E83.67156
G1 X148.437 Y160.953 E83.6878
G1 X148.885 Y161.136 E83.7055
G1 X149.122 Y161.221 E83.71471
G1 X149.463 Y161.326 E83.72777
G1 X149.966 Y161.445 E83.74668
G1 X150.249 Y161.5 E83.75723
G1 X150.513 Y161.539 E83.76699
G1 X150.864 Y161.579 E83.77991
G1 X150.874 Y161.581 E83.78029
G1 X151.127 Y161.599 E83.78957
G1 X151.553 Y161.617 E83.80517
G1 X151.715 Y161.62 E83.81109
G1 X152.109 Y161.609 E83.82552
G1 X152.435 Y161.59 E83.83746
G1 X152.742 Y161.561 E83.84874
G1 X153.043 Y161.519 E83.85986
G1 X153.502 Y161.431 E83.87696
G1 X154 Y161.302 E83.89578
G1 X154.499 Y161.134 E83.91505
G1 X154.756 Y161.034 E83.92514
G1 X155.041 Y160.91 E83.93651
G1 X155.468 Y160.697 E83.95397
G1 X155.84 Y160.476 E83.9698
G1 X156.062 Y160.331 E83.9795
G1 X156.295 Y160.166 E83.98994
G1 X156.508 Y160.004 E83.99973
G1 X156.757 Y159.805 E84.0114
G1 X156.964 Y159.621 E84.02153
G1 X157.177 Y159.421 E84.03222
G1 X157.394 Y159.202 E84.0435
G1 X157.594 Y158.986 E84.05427
G1 X157.779 Y158.774 E84.06456
G1 X157.955 Y158.559 E84.07473
G1 X158.15 Y158.301 E84.08656
G1 X158.334 Y158.038 E84.0983
G1 X158.591 Y157.621 E84.11622
G1 X158.82 Y157.189 E84.13411
G1 X159.028 Y156.724 E84.15275
G1 X159.209 Y156.231 E84.17196
G1 X159.353 Y155.738 E84.19075
G1 X159.358 Y155.724 E84.1913
G1 X159.473 Y155.21 E84.21057
G1 X159.538 Y154.821 E84.225
G1 X159.58 Y154.444 E84.23888
G1 X159.599 Y154.182 E84.24849
G1 X159.621 Y153.589 E84.2702
G1 X159.611 Y153.208 E84.28414
G1 X159.594 Y152.871 E84.29649
G1 X159.538 Y152.351 E84.31562
G1 X159.493 Y152.064 E84.32625
G1 X159.44 Y151.785 E84.33664
G1 X159.37 Y151.476 E84.34823
G1 X159.295 Y151.193 E84.35894
G1 X159.221 Y150.953 E84.36813
G1 X159.112 Y150.644 E84.38012
G1 X158.992 Y150.343 E84.39197
G1 X158.913 Y150.164 E84.39913
G1 X158.789 Y149.904 E84.40967
G1 X158.565 Y149.493 E84.4268
G1 X158.395 Y149.217 E84.43866
G1 X158.122 Y148.82 E84.45628
G1 X157.838 Y148.453 E84.47326
G1 X157.531 Y148.101 E84.49035
G1 X157.337 Y147.896 E84.50068
G1 X157.085 Y147.652 E84.51351
G1 X156.869 Y147.458 E84.52413
G1 X156.647 Y147.271 E84.53475
G1 X156.233 Y146.955 E84.55381
G1 X155.97 Y146.776 E84.56545
G1 X155.617 Y146.56 E84.58059
G1 X155.404 Y146.442 E84.5895
G1 X155.144 Y146.311 E84.60015
G1 X154.874 Y146.187 E84.61102
G1 X154.591 Y146.075 E84.62215
G1 X154.189 Y145.935 E84.63773
G1 X154.174 Y145.929 E84.63832
G1 X153.686 Y145.794 E84.65684
G1 X153.317 Y145.713 E84.67066
G1 X152.841 Y145.639 E84.68829
G1 X152.371 Y145.596 E84.70556
G1 X152.199 Y145.586 E84.71186
G1 X151.785 Y145.574 E84.72701
G1 X151.437 Y145.582 E84.73975
G1 X151.128 Y145.597 E84.75107
G1 X150.641 Y145.648 E84.76898
G1 X150.426 Y145.681 E84.77694
G1 X150.094 Y145.74 E84.78928
G1 X149.604 Y145.857 E84.80771
G1 X149.11 Y146.011 E84.82664
G1 X148.698 Y146.166 E84.84274
G1 X148.463 Y146.267 E84.8521
G1 X148.172 Y146.406 E84.8639
G1 X147.863 Y146.571 E84.87672
G1 X147.581 Y146.735 E84.88865
G1 X147.2 Y146.984 E84.9053
G1 X147.03 Y147.106 E84.91296
G1 X146.7 Y147.356 E84.92811
G1 X146.329 Y147.675 E84.94601
G1 X145.946 Y148.037 E84.96529
G1 X145.778 Y148.215 E84.97424
G1 X145.581 Y148.44 E84.98518
G1 X145.318 Y148.769 E85.00059
G1 X145.142 Y149.017 E85.01172
G1 X144.872 Y149.446 E85.03027
G1 X144.634 Y149.892 E85.04876
G1 X144.419 Y150.364 E85.06774
G1 X144.327 Y150.602 E85.07707
G1 X144.232 Y150.873 E85.08758
G1 X144.141 Y151.17 E85.09894
G1 X144.02 Y151.664 E85.11755
G1 X143.957 Y152.001 E85.13009
G1 X143.892 Y152.468 E85.14734
G1 X143.892 Y152.479 E85.14775
G1 X143.862 Y152.817 E85.16016
G1 X143.845 Y153.094 E85.17032
G1 X143.831 Y153.552 E85.18708
G1 X143.839 Y153.912 E85.20025
G1 X143.857 Y154.274 E85.21351
G1 X143.879 Y154.544 E85.22343
G1 X143.914 Y154.826 E85.23382
G1 X143.958 Y155.122 E85.24477
G1 X144.013 Y155.414 E85.25564
G1 X144.074 Y155.688 E85.26591
G1 X144.139 Y155.95 E85.27579
G1 X144.228 Y156.25 E85.28724
G1 X144.286 Y156.427 E85.29405
G1 X144.385 Y156.697 E85.30457
G1 X144.5 Y156.975 E85.31558
G1 X144.635 Y157.268 E85.32738
G1 X144.761 Y157.514 E85.33749
G1 X144.916 Y157.789 E85.34904
G1 X145.138 Y158.147 E85.36445
G1 X145.398 Y158.512 E85.38085
G1 X145.693 Y158.88 E85.39811
G1 X145.91 Y159.125 E85.41008
G1 X146.128 Y159.351 E85.42157
G1 X146.374 Y159.585 E85.43399
G1 X146.542 Y159.736 E85.44225
G1 X146.77 Y159.929 E85.45318
G1 X147.159 Y160.226 E85.47109
G1 X147.536 Y160.477 E85.48766
G0 F6000 X147.771 Y160.105
G1 F1200 X147.974 Y160.226 E85.49631
G1 X148.237 Y160.369 E85.50726
G1 X148.616 Y160.551 E85.52264
G1 X149.042 Y160.725 E85.53948
G1 X149.261 Y160.803 E85.54798
G1 X149.579 Y160.901 E85.56016
G1 X150.059 Y161.015 E85.57821
G1 X150.323 Y161.066 E85.58804
