;FLAVOR:Marlin
;TIME:1009
;Filament used: 0.677842m
;Layer height: 0.2
;MINX:6.335
;MINY:6.335
;MINZ:0.2
;MAXX:213.665
;MAXY:212.78
;MAXZ:0.2
;Generated with Cura_SteamEngine 4.9.1
M140 S60
M105
M190 S60
M104 S210
M105
M109 S210
M82 ;absolute extrusion mode
G28 ; home all axes
 M117 Purge extruder
 G92 E0 ; reset extruder
 G1 Z1.0 F3000 ; move z up little to prevent scratching of surface
 G1 X2 Y20 Z0.3 F5000.0 ; move to start-line position
 G1 X2 Y200.0 Z0.3 F1500.0 E15 ; draw 1st line
 G1 X2 Y200.0 Z0.4 F5000.0 ; move to side a little
 G1 X2 Y20 Z0.4 F1500.0 E30 ; draw 2nd line
 G92 E0 ; reset extruder
 G1 Z1.0 F3000 ; move z up little to prevent scratching of surface
G92 E0
G92 E0
G1 F1500 E-2
;LAYER_COUNT:1
;LAYER:0
M107
;MESH:Level Test.STL
G0 F6000 X96.1 Y211.9 Z0.2
;TYPE:WALL-INNER
G1 F1500 E0
G1 F1200 X96.1 Y184.1 E1.01709
G1 X123.9 Y184.1 E2.03419
G1 X123.9 Y211.9 E3.05128
G1 X96.1 Y211.9 E4.06838
G0 F6000 X95.66 Y212.34
G1 F1200 X95.66 Y183.66 E5.11767
G1 X124.34 Y183.66 E6.16696
G1 X124.34 Y212.34 E7.21625
G1 X95.66 Y212.34 E8.26554
G0 F6000 X95.22 Y212.78
;TYPE:WALL-OUTER
G1 F1200 X95.22 Y183.22 E9.34703
G1 X124.78 Y183.22 E10.42852
G1 X124.78 Y212.78 E11.51
G1 X95.22 Y212.78 E12.59149
G0 F6000 X96.53 Y211.47
;TYPE:SKIN
G1 F1200 X96.53 Y184.53 E13.57712
G1 X123.47 Y184.53 E14.56275
G1 X123.47 Y211.47 E15.54838
G1 X96.53 Y211.47 E16.53401
G0 F6000 X96.797 Y211.292
G1 F1200 X96.706 Y211.2 E16.53875
G0 F6000 X96.706 Y210.578
G1 F1200 X97.42 Y211.292 E16.57569
G0 F6000 X98.042 Y211.292
G1 F1200 X96.706 Y209.956 E16.64481
G0 F6000 X96.706 Y209.334
G1 F1200 X98.664 Y211.292 E16.74612
G0 F6000 X99.286 Y211.292
G1 F1200 X96.706 Y208.711 E16.87964
G0 F6000 X96.706 Y208.089
G1 F1200 X99.909 Y211.292 E17.04536
G0 F6000 X100.531 Y211.292
G1 F1200 X96.706 Y207.467 E17.24327
G0 F6000 X96.706 Y206.844
G1 F1200 X101.153 Y211.292 E17.47339
G0 F6000 X101.776 Y211.292
G1 F1200 X96.706 Y206.222 E17.73571
G0 F6000 X96.706 Y205.6
G1 F1200 X102.398 Y211.292 E18.03022
G0 F6000 X103.02 Y211.292
G1 F1200 X96.706 Y204.978 E18.35691
G0 F6000 X96.706 Y204.355
G1 F1200 X103.642 Y211.292 E18.71581
G0 F6000 X104.265 Y211.292
G1 F1200 X96.706 Y203.733 E19.10692
G0 F6000 X96.706 Y203.111
G1 F1200 X104.887 Y211.292 E19.53021
G0 F6000 X105.509 Y211.292
G1 F1200 X96.706 Y202.489 E19.98568
G0 F6000 X96.706 Y201.866
G1 F1200 X106.131 Y211.292 E20.47336
G0 F6000 X106.754 Y211.292
G1 F1200 X96.706 Y201.244 E20.99325
G0 F6000 X96.706 Y200.622
G1 F1200 X107.376 Y211.292 E21.54532
G0 F6000 X107.998 Y211.292
G1 F1200 X96.706 Y200 E22.12958
G0 F6000 X96.706 Y199.377
G1 F1200 X108.62 Y211.292 E22.74604
G0 F6000 X109.243 Y211.292
G1 F1200 X96.706 Y198.755 E23.39472
G0 F6000 X96.706 Y198.133
G1 F1200 X109.865 Y211.292 E24.07557
G0 F6000 X110.487 Y211.292
G1 F1200 X96.706 Y197.511 E24.78861
G0 F6000 X96.706 Y196.888
G1 F1200 X111.109 Y211.292 E25.53385
G0 F6000 X111.732 Y211.292
G1 F1200 X96.706 Y196.266 E26.31131
G0 F6000 X96.706 Y195.644
G1 F1200 X112.354 Y211.292 E27.12095
G0 F6000 X112.976 Y211.292
G1 F1200 X96.706 Y195.022 E27.96277
G0 F6000 X96.706 Y194.399
G1 F1200 X113.598 Y211.292 E28.8368
G0 F6000 X114.221 Y211.292
G1 F1200 X96.706 Y193.777 E29.74303
G0 F6000 X96.706 Y193.155
G1 F1200 X114.843 Y211.292 E30.68145
G0 F6000 X115.465 Y211.292
G1 F1200 X96.706 Y192.533 E31.65205
G0 F6000 X96.706 Y191.91
G1 F1200 X116.087 Y211.292 E32.65487
G0 F6000 X116.71 Y211.292
G1 F1200 X96.706 Y191.288 E33.68989
G0 F6000 X96.706 Y190.666
G1 F1200 X117.332 Y211.292 E34.75709
G0 F6000 X117.954 Y211.292
G1 F1200 X96.706 Y190.044 E35.85647
G0 F6000 X96.706 Y189.421
G1 F1200 X118.576 Y211.292 E36.98807
G0 F6000 X119.199 Y211.292
G1 F1200 X96.706 Y188.799 E38.15187
G0 F6000 X96.706 Y188.177
G1 F1200 X119.821 Y211.292 E39.34785
G0 F6000 X120.443 Y211.292
G1 F1200 X96.706 Y187.555 E40.57602
G0 F6000 X96.706 Y186.932
G1 F1200 X121.065 Y211.292 E41.8364
G0 F6000 X121.688 Y211.292
G1 F1200 X96.706 Y186.31 E43.12898
G0 F6000 X96.706 Y185.688
G1 F1200 X122.31 Y211.292 E44.45375
G0 F6000 X122.932 Y211.292
G1 F1200 X96.706 Y185.066 E45.8107
G0 F6000 X96.967 Y184.705
G1 F1200 X123.293 Y211.031 E47.17282
G0 F6000 X123.293 Y210.409
G1 F1200 X97.589 Y184.705 E48.50276
G0 F6000 X98.212 Y184.705
G1 F1200 X123.293 Y209.787 E49.80049
G0 F6000 X123.293 Y209.165
G1 F1200 X98.834 Y184.705 E51.06604
G0 F6000 X99.456 Y184.705
G1 F1200 X123.293 Y208.542 E52.29938
G0 F6000 X123.293 Y207.92
G1 F1200 X100.078 Y184.705 E53.50054
G0 F6000 X100.701 Y184.705
G1 F1200 X123.293 Y207.298 E54.66949
G0 F6000 X123.293 Y206.675
G1 F1200 X101.323 Y184.705 E55.80624
G0 F6000 X101.945 Y184.705
G1 F1200 X123.293 Y206.053 E56.91079
G0 F6000 X123.293 Y205.431
G1 F1200 X102.567 Y184.705 E57.98317
G0 F6000 X103.19 Y184.705
G1 F1200 X123.293 Y204.809 E59.02334
G0 F6000 X123.293 Y204.186
G1 F1200 X103.812 Y184.705 E60.0313
G0 F6000 X104.434 Y184.705
G1 F1200 X123.293 Y203.564 E61.00707
G0 F6000 X123.293 Y202.942
G1 F1200 X105.056 Y184.705 E61.95067
G0 F6000 X105.679 Y184.705
G1 F1200 X123.293 Y202.32 E62.86205
G0 F6000 X123.293 Y201.697
G1 F1200 X106.301 Y184.705 E63.74123
G0 F6000 X106.923 Y184.705
G1 F1200 X123.293 Y201.075 E64.58822
G0 F6000 X123.293 Y200.453
G1 F1200 X107.545 Y184.705 E65.40303
G0 F6000 X108.168 Y184.705
G1 F1200 X123.293 Y199.831 E66.18564
G0 F6000 X123.293 Y199.208
G1 F1200 X108.79 Y184.705 E66.93603
G0 F6000 X109.412 Y184.705
G1 F1200 X123.293 Y198.586 E67.65424
G0 F6000 X123.293 Y197.964
G1 F1200 X110.035 Y184.705 E68.34025
G0 F6000 X110.657 Y184.705
G1 F1200 X123.293 Y197.342 E68.99407
G0 F6000 X123.293 Y196.719
G1 F1200 X111.279 Y184.705 E69.61568
G0 F6000 X111.901 Y184.705
G1 F1200 X123.293 Y196.097 E70.20511
G0 F6000 X123.293 Y195.475
G1 F1200 X112.524 Y184.705 E70.76233
G0 F6000 X113.146 Y184.705
G1 F1200 X123.293 Y194.853 E71.28737
G0 F6000 X123.293 Y194.23
G1 F1200 X113.768 Y184.705 E71.7802
G0 F6000 X114.39 Y184.705
G1 F1200 X123.293 Y193.608 E72.24084
G0 F6000 X123.293 Y192.986
G1 F1200 X115.013 Y184.705 E72.66928
G0 F6000 X115.635 Y184.705
G1 F1200 X123.293 Y192.364 E73.06554
G0 F6000 X123.293 Y191.741
G1 F1200 X116.257 Y184.705 E73.42958
G0 F6000 X116.879 Y184.705
G1 F1200 X123.293 Y191.119 E73.76145
G0 F6000 X123.293 Y190.497
G1 F1200 X117.502 Y184.705 E74.0611
G0 F6000 X118.124 Y184.705
G1 F1200 X123.293 Y189.875 E74.32858
G0 F6000 X123.293 Y189.252
G1 F1200 X118.746 Y184.705 E74.56384
G0 F6000 X119.368 Y184.705
G1 F1200 X123.293 Y188.63 E74.76692
G0 F6000 X123.293 Y188.008
G1 F1200 X119.991 Y184.705 E74.9378
G0 F6000 X120.613 Y184.705
G1 F1200 X123.293 Y187.386 E75.07649
G0 F6000 X123.293 Y186.763
G1 F1200 X121.235 Y184.705 E75.18297
G0 F6000 X121.857 Y184.705
G1 F1200 X123.293 Y186.141 E75.25727
G0 F6000 X123.293 Y185.519
G1 F1200 X122.48 Y184.705 E75.29936
G0 F6000 X123.102 Y184.705
G1 F1200 X123.293 Y184.897 E75.30927
G1 F1500 E73.30927
G0 F6000 X125.665 Y184.897
G0 X125.653 Y182.347
G0 X94.347 Y182.347
G0 X37.665 Y211.9
G0 X35.9 Y211.9
;TYPE:WALL-INNER
G1 F1500 E75.30927
G1 F1200 X8.1 Y211.9 E76.32636
G1 X8.1 Y184.1 E77.34346
G1 X35.9 Y184.1 E78.36055
G1 X35.9 Y211.9 E79.37765
G0 F6000 X36.34 Y212.34
G1 F1200 X7.66 Y212.34 E80.42694
G1 X7.66 Y183.66 E81.47623
G1 X36.34 Y183.66 E82.52552
G1 X36.34 Y212.34 E83.57481
G0 F6000 X36.78 Y212.78
;TYPE:WALL-OUTER
G1 F1200 X7.22 Y212.78 E84.6563
G1 X7.22 Y183.22 E85.73779
G1 X36.78 Y183.22 E86.81927
G1 X36.78 Y212.78 E87.90076
G0 F6000 X35.47 Y211.47
;TYPE:SKIN
G1 F1200 X8.53 Y211.47 E88.88639
G1 X8.53 Y184.53 E89.87202
G1 X35.47 Y184.53 E90.85765
G1 X35.47 Y211.47 E91.84328
G1 F1500 E89.84328
G0 F6000 X37.665 Y211.47
G0 X37.665 Y185.257
G0 X35.294 Y185.257
G1 F1500 E91.84328
G1 F1200 X34.742 Y184.705 E91.87184
G0 F6000 X34.12 Y184.705
G1 F1200 X35.294 Y185.879 E91.93259
G0 F6000 X35.294 Y186.502
G1 F1200 X33.497 Y184.705 E92.02556
G0 F6000 X32.875 Y184.705
G1 F1200 X35.294 Y187.124 E92.15072
G0 F6000 X35.294 Y187.746
G1 F1200 X32.253 Y184.705 E92.30807
G0 F6000 X31.631 Y184.705
G1 F1200 X35.294 Y188.369 E92.49762
G0 F6000 X35.294 Y188.991
G1 F1200 X31.008 Y184.705 E92.71938
G0 F6000 X30.386 Y184.705
G1 F1200 X35.294 Y189.613 E92.97332
G0 F6000 X35.294 Y190.235
G1 F1200 X29.764 Y184.705 E93.25945
G0 F6000 X29.141 Y184.705
G1 F1200 X35.294 Y190.858 E93.57781
G0 F6000 X35.294 Y191.48
G1 F1200 X28.519 Y184.705 E93.92835
G0 F6000 X27.897 Y184.705
G1 F1200 X35.294 Y192.102 E94.31108
G0 F6000 X35.294 Y192.724
G1 F1200 X27.275 Y184.705 E94.72599
G0 F6000 X26.652 Y184.705
G1 F1200 X35.294 Y193.347 E95.17313
G0 F6000 X35.294 Y193.969
G1 F1200 X26.03 Y184.705 E95.65245
G0 F6000 X25.408 Y184.705
G1 F1200 X35.294 Y194.591 E96.16396
G0 F6000 X35.294 Y195.213
G1 F1200 X24.786 Y184.705 E96.70765
G0 F6000 X24.163 Y184.705
G1 F1200 X35.294 Y195.836 E97.28358
G0 F6000 X35.294 Y196.458
G1 F1200 X23.541 Y184.705 E97.89168
G0 F6000 X22.919 Y184.705
G1 F1200 X35.294 Y197.08 E98.53197
G0 F6000 X35.294 Y197.702
G1 F1200 X22.297 Y184.705 E99.20445
G0 F6000 X21.674 Y184.705
G1 F1200 X35.294 Y198.325 E99.90915
G0 F6000 X35.294 Y198.947
G1 F1200 X21.052 Y184.705 E100.64604
G0 F6000 X20.43 Y184.705
G1 F1200 X35.294 Y199.569 E101.41512
G0 F6000 X35.294 Y200.191
G1 F1200 X19.808 Y184.705 E102.21637
G0 F6000 X19.185 Y184.705
G1 F1200 X35.294 Y200.814 E103.04986
G0 F6000 X35.294 Y201.436
G1 F1200 X18.563 Y184.705 E103.91553
G0 F6000 X17.941 Y184.705
G1 F1200 X35.294 Y202.058 E104.81339
G0 F6000 X35.294 Y202.68
G1 F1200 X17.319 Y184.705 E105.74343
G0 F6000 X16.696 Y184.705
G1 F1200 X35.294 Y203.303 E106.7057
G0 F6000 X35.294 Y203.925
G1 F1200 X16.074 Y184.705 E107.70015
G0 F6000 X15.452 Y184.705
G1 F1200 X35.294 Y204.547 E108.72679
G0 F6000 X35.294 Y205.169
G1 F1200 X14.83 Y184.705 E109.78561
G0 F6000 X14.207 Y184.705
G1 F1200 X35.294 Y205.792 E110.87667
G0 F6000 X35.294 Y206.414
G1 F1200 X13.585 Y184.705 E111.9999
G0 F6000 X12.963 Y184.705
G1 F1200 X35.294 Y207.036 E113.15532
G0 F6000 X35.294 Y207.658
G1 F1200 X12.341 Y184.705 E114.34293
G0 F6000 X11.718 Y184.705
G1 F1200 X35.294 Y208.281 E115.56276
G0 F6000 X35.294 Y208.903
G1 F1200 X11.096 Y184.705 E116.81478
G0 F6000 X10.474 Y184.705
G1 F1200 X35.294 Y209.525 E118.09899
G0 F6000 X35.294 Y210.147
G1 F1200 X9.852 Y184.705 E119.41537
G0 F6000 X9.229 Y184.705
G1 F1200 X35.294 Y210.77 E120.76399
G0 F6000 X35.195 Y211.293
G1 F1200 X8.705 Y184.803 E122.1346
G0 F6000 X8.705 Y185.426
G1 F1200 X34.573 Y211.293 E123.473
G0 F6000 X33.951 Y211.293
G1 F1200 X8.705 Y186.048 E124.77922
G0 F6000 X8.705 Y186.67
G1 F1200 X33.328 Y211.293 E126.05323
G0 F6000 X32.706 Y211.293
G1 F1200 X8.705 Y187.292 E127.29505
G0 F6000 X8.705 Y187.915
G1 F1200 X32.084 Y211.293 E128.50467
G0 F6000 X31.462 Y211.293
G1 F1200 X8.705 Y188.537 E129.68211
G0 F6000 X8.705 Y189.159
G1 F1200 X30.839 Y211.293 E130.82734
G0 F6000 X30.217 Y211.293
G1 F1200 X8.705 Y189.781 E131.94038
G0 F6000 X8.705 Y190.404
G1 F1200 X29.595 Y211.293 E133.02122
G0 F6000 X28.972 Y211.293
G1 F1200 X8.705 Y191.026 E134.06984
G0 F6000 X8.705 Y191.648
G1 F1200 X28.35 Y211.293 E135.08629
G0 F6000 X27.728 Y211.293
G1 F1200 X8.705 Y192.27 E136.07055
G0 F6000 X8.705 Y192.893
G1 F1200 X27.106 Y211.293 E137.0226
G0 F6000 X26.483 Y211.293
G1 F1200 X8.705 Y193.515 E137.94245
G0 F6000 X8.705 Y194.137
G1 F1200 X25.861 Y211.293 E138.83011
G0 F6000 X25.239 Y211.293
G1 F1200 X8.705 Y194.759 E139.68559
G0 F6000 X8.705 Y195.382
G1 F1200 X24.617 Y211.293 E140.50886
G0 F6000 X23.994 Y211.293
G1 F1200 X8.705 Y196.004 E141.29992
G0 F6000 X8.705 Y196.626
G1 F1200 X23.372 Y211.293 E142.0588
G0 F6000 X22.75 Y211.293
G1 F1200 X8.705 Y197.248 E142.7855
G0 F6000 X8.705 Y197.871
G1 F1200 X22.128 Y211.293 E143.47999
G0 F6000 X21.505 Y211.293
G1 F1200 X8.705 Y198.493 E144.14227
G0 F6000 X8.705 Y199.115
G1 F1200 X20.883 Y211.293 E144.77237
G0 F6000 X20.261 Y211.293
G1 F1200 X8.705 Y199.737 E145.37028
G0 F6000 X8.705 Y200.36
G1 F1200 X19.639 Y211.293 E145.93599
G0 F6000 X19.016 Y211.293
G1 F1200 X8.705 Y200.982 E146.46948
G0 F6000 X8.705 Y201.604
G1 F1200 X18.394 Y211.293 E146.9708
G0 F6000 X17.772 Y211.293
G1 F1200 X8.705 Y202.226 E147.43993
G0 F6000 X8.705 Y202.849
G1 F1200 X17.15 Y211.293 E147.87686
G0 F6000 X16.527 Y211.293
G1 F1200 X8.705 Y203.471 E148.28157
G0 F6000 X8.705 Y204.093
G1 F1200 X15.905 Y211.293 E148.6541
G0 F6000 X15.283 Y211.293
G1 F1200 X8.705 Y204.715 E148.99445
G0 F6000 X8.705 Y205.338
G1 F1200 X14.661 Y211.293 E149.30259
G0 F6000 X14.038 Y211.293
G1 F1200 X8.705 Y205.96 E149.57853
G0 F6000 X8.705 Y206.582
G1 F1200 X13.416 Y211.293 E149.82228
G0 F6000 X12.794 Y211.293
G1 F1200 X8.705 Y207.204 E150.03384
G0 F6000 X8.705 Y207.827
G1 F1200 X12.172 Y211.293 E150.2132
G0 F6000 X11.549 Y211.293
G1 F1200 X8.705 Y208.449 E150.36035
G0 F6000 X8.705 Y209.071
G1 F1200 X10.927 Y211.293 E150.47532
G0 F6000 X10.305 Y211.293
G1 F1200 X8.705 Y209.693 E150.55811
G0 F6000 X8.705 Y210.316
G1 F1200 X9.683 Y211.293 E150.60868
G0 F6000 X9.06 Y211.293
G1 F1200 X8.705 Y210.938 E150.62705
G1 F1500 E148.62705
G0 F6000 X6.335 Y210.938
G0 X6.347 Y182.347
G0 X35.9 Y125.665
G0 X35.9 Y123.9
;TYPE:WALL-INNER
G1 F1500 E150.62705
G1 F1200 X8.1 Y123.9 E151.64415
G1 X8.1 Y96.1 E152.66124
G1 X35.9 Y96.1 E153.67834
G1 X35.9 Y123.9 E154.69543
G0 F6000 X36.34 Y124.34
G1 F1200 X7.66 Y124.34 E155.74472
G1 X7.66 Y95.66 E156.79401
G1 X36.34 Y95.66 E157.8433
G1 X36.34 Y124.34 E158.89259
G0 F6000 X36.78 Y124.78
;TYPE:WALL-OUTER
G1 F1200 X7.22 Y124.78 E159.97408
G1 X7.22 Y95.22 E161.05557
G1 X36.78 Y95.22 E162.13705
G1 X36.78 Y124.78 E163.21854
G0 F6000 X35.47 Y123.47
;TYPE:SKIN
G1 F1200 X8.53 Y123.47 E164.20417
G1 X8.53 Y96.53 E165.1898
G1 X35.47 Y96.53 E166.17543
G1 X35.47 Y123.47 E167.16106
G1 F1500 E165.16106
G0 F6000 X37.665 Y123.47
G0 X37.665 Y96.897
G0 X35.294 Y96.897
G1 F1500 E167.16106
G1 F1200 X35.102 Y96.705 E167.171
G0 F6000 X34.479 Y96.705
G1 F1200 X35.294 Y97.519 E167.21314
G0 F6000 X35.294 Y98.142
G1 F1200 X33.857 Y96.705 E167.28749
G0 F6000 X33.235 Y96.705
G1 F1200 X35.294 Y98.764 E167.39403
G0 F6000 X35.294 Y99.386
G1 F1200 X32.613 Y96.705 E167.53274
G0 F6000 X31.99 Y96.705
G1 F1200 X35.294 Y100.008 E167.70367
G0 F6000 X35.294 Y100.631
G1 F1200 X31.368 Y96.705 E167.9068
G0 F6000 X30.746 Y96.705
G1 F1200 X35.294 Y101.253 E168.14212
G0 F6000 X35.294 Y101.875
G1 F1200 X30.124 Y96.705 E168.40962
G0 F6000 X29.501 Y96.705
G1 F1200 X35.294 Y102.497 E168.70932
G0 F6000 X35.294 Y103.12
G1 F1200 X28.879 Y96.705 E169.04124
G0 F6000 X28.257 Y96.705
G1 F1200 X35.294 Y103.742 E169.40534
G0 F6000 X35.294 Y104.364
G1 F1200 X27.635 Y96.705 E169.80162
G0 F6000 X27.012 Y96.705
G1 F1200 X35.294 Y104.986 E170.23011
G0 F6000 X35.294 Y105.609
G1 F1200 X26.39 Y96.705 E170.69081
G0 F6000 X25.768 Y96.705
G1 F1200 X35.294 Y106.231 E171.18369
G0 F6000 X35.294 Y106.853
G1 F1200 X25.146 Y96.705 E171.70875
G0 F6000 X24.523 Y96.705
G1 F1200 X35.294 Y107.475 E172.26603
G0 F6000 X35.294 Y108.098
G1 F1200 X23.901 Y96.705 E172.85551
G0 F6000 X23.279 Y96.705
G1 F1200 X35.294 Y108.72 E173.47717
G0 F6000 X35.294 Y109.342
G1 F1200 X22.657 Y96.705 E174.13102
G0 F6000 X22.034 Y96.705
G1 F1200 X35.294 Y109.965 E174.8171
G0 F6000 X35.294 Y110.587
G1 F1200 X21.412 Y96.705 E175.53536
G0 F6000 X20.79 Y96.705
G1 F1200 X35.294 Y111.209 E176.28581
G0 F6000 X35.294 Y111.831
G1 F1200 X20.168 Y96.705 E177.06844
G0 F6000 X19.545 Y96.705
G1 F1200 X35.294 Y112.454 E177.8833
G0 F6000 X35.294 Y113.076
G1 F1200 X18.923 Y96.705 E178.73034
G0 F6000 X18.301 Y96.705
G1 F1200 X35.294 Y113.698 E179.60957
G0 F6000 X35.294 Y114.32
G1 F1200 X17.679 Y96.705 E180.52098
G0 F6000 X17.056 Y96.705
G1 F1200 X35.294 Y114.943 E181.46463
